startshape spin 

rule spin {
spikes {}
spin {x 1 r 20 s 0.95 }
}

rule spikes { spike {hue 1 sat 0.8016 b 0.9502} }

rule spike { point {  } spike { r 10 s 0.95 hue +1 } }

rule point { CIRCLE{} point { y 0.1 s 0.96 sat -0.005 }}