startshape trees 

rule trees {
tree {  hue 22.9 sat 1 b 1 }
trees { r -10 s 0.90 }
}

rule tree {
branch {b 1}
}

rule branch 20 {
	draw {}	branch { y 1 s 0.95 r 5 sat -0.025}
}


rule branch {
	branch{flip 90}
}

rule branch {
	draw {}	fork {}
}

rule branch 0.1 {circle{}}

rule fork {
	branch{flip 90} branch{}
}

rule draw {
	CIRCLE {}
	draw { x 0.005 y 0.005 s 0.9 sat -0.025}
} 