startshape spiny 

rule spiny {
spins {}
spiny {x 25 y 60 s 0.9 b 0.0001 r -10}
}

rule spins {
spin {}
spin { r 180}
}

rule spin {
spikes {}
spin {x 10 r -18 s 0.95 }
}

rule spikes { spike {hue 1 sat 0.8016 b 0.9502 alpha 0.6} }

rule spike { point {  } 
spike { r -15 s 0.99 hue 2.5 } 
}

rule point { CIRCLE{} 
point { y 0.25 s 0.99 sat -0.005 r -1}
}




