startshape tenree

rule tenree{
TENDRIL{}
tenree{y 1 s 0.9}
}

rule TENDRIL{
SQUARE{}
TENDRIL{y 1 r 1 s .99}
} 

rule TENDRIL{
SQUARE{}
TENDRIL{y 1 r -1 s .99}
} 

rule TENDRIL{
SQUARE{}
TENDRIL{y 1 r 5 s .99}
} 

rule TENDRIL{
SQUARE{}
TENDRIL{y 1 r -5 s .99}
} 